X:3577
T:LDYMNTSH- Mc.Intosh's Reel
O:england
S:Bremner's Reels, 1759
L:1/8
M:C|
K:Amixolydian
f|d/d/d dA B3/2d/eg|d/d/d gd (B2 B)e|d/d/d dA B3/2d/e(g|\
f)edB A2A::a3/2b/af gf e(g|f)dgd (B2 B)f|a3/2b/af gea(g|f)edB
(A2A):|]


